X: 12595
T: Farewell To The Doherty's
R: waltz
M: 3/4
K: Eminor
|E3 FGA|B3 d B2|AB G2 AG|FE D2 (3DEF|
G3 EFG|AB GEED|E4 EF|1 F4 B,2:|2 E4 Bd||
e2 d3 c|BAGABd|A3 GFG|FED2 EF|
G3EFG|AB GE ED|E4 EF|1 F4 Bd:|2 E6||

